X:1
T:Gud signe vårt dyre fedreland
T:Gud signe vårt dyre fedreland
T:C. E. F. Weyse, sats: Oscar Borg
T:Elias Blix
C:C. E. F. Weyse, sats: Oscar Borg
Z:Elias Blix
%%score [ 1 2 3 4 ]
L:1/8
M:4/4
K:D
V:1 treble nm="Soprano"
V:2 treble nm="Alto"
V:3 treble-8 nm="Tenor"
V:4 bass nm="Bass"
V:1
!p! D2 | F2 F F A2 A2 | d2 B2 A z F2 | B2 A A G2 E2 | F4 E z A2 | A2 A A!<(! B2 B2 | %6
w: 1.Gud|sig- ne vårt dy- re|fed- re- land og|lat det som ha- gen|blø- ma. Lat|ly- sa din fred frå|
 c2 d2 e!<)! z!f! e2 | A2 A A c2 d2 | B4 A z!p! A2 | F2 F F G2 A2 | B2 B2 A z!<(! A2 | %11
w: fjell til strand og|vet- ter for vår- sol|rø- ma. Lat|fol- ket som brø- der|sa- man bu, som|
 d2 d d c2 d2!<)! | e4!>(! !fermata!d2!>)! |] %13
w: krist- ne det kan seg|sø- ma.|
V:2
!p! D2 | D2 D D E2 E2 | D2 D2 D z F2 | G2 F F E2 C2 | D4 C z E2 | F2 E E!<(! E2 E2 | %6
w: 1.Gud|sig- ne vårt dy- re|fed- re- land og|lat det som ha- gen|blø- ma. Lat|ly- sa din fred frå|
 E2 F2 E!<)! z!f! D2 | C2 F F E2 F2 | (E2 D2) C z!p! E2 | D2 D D D2 D2 | D2 D2 D z!<(! E2 | %11
w: fjell til strand og|vet- ter for vår- sol|rø- * ma. Lat|fol- ket som brø- der|sa- man bu, som|
 D2 G F E2 D2!<)! | G4!>(! !fermata!F2!>)! |] %13
w: krist- ne det kan seg|sø- ma.|
V:3
!p! D2 | F2 F F A2 A2 | F2 G2 F z D2 | G2 D F G2 E2 | F4 E z A2 | A2 A A!<(! A2 ^G2 | %6
w: 1.Gud|sig- ne vårt dy- re|fed- re- land og|lat det som ha- gen|blø- ma. Lat|ly- sa din fred frå|
 A2 A2 A!<)! z!f! ^G2 | A2 A A A2 A2 | (A2 ^G2) A z!p! A2 | F2 F F =G2 F2 | G2 G2 F z!<(! A2 | %11
w: fjell til strand og|vet- ter for vår- sol|rø- * ma. Lat|fol- ket som brø- der|sa- man bu, som|
 G2 B A G2 F2!<)! | (B2 c2)!>(! !fermata!A2!>)! |] %13
w: krist- ne det kan seg|sø- * ma.|
V:4
!p! D,2 | D,2 D, D, C,2 C,2 | B,,2 G,,2 D, z D,2 | G,2 D, ^D, E,2 A,,2 | =D,4 A,, z C,2 | %5
w: 1.Gud|sig- ne vårt dy- re|fed- re- land og|lat det som ha- gen|blø- ma. Lat|
 D,2 C, C,!<(! B,,2 B,,2 | A,,2 F,,2 C,!<)! z!f! B,,2 | A,,2 F, D, C,2 B,,2 | E,4 A,, z!p! C,2 | %9
w: ly- sa din fred frå|fjell til strand og|vet- ter for vår- sol|rø- ma. Lat|
 D,2 D, =C, B,,2 A,,2 | G,,2 B,,2 D, z!<(! ^C,2 | B,,2 G,, A,, ^A,,2 B,,2!<)! | %12
w: fol- ket som brø- der|sa- man bu, som|krist- ne det kan seg|
 (G,,2 =A,,2)!>(! !fermata!D,2!>)! |] %13
w: sø- * ma.|

